assets/icons/qvision/visibility_off.svg

<svg xmlns="http://www.w3.org/2000/svg" height="24" viewBox="0 0 24 24" width="24"><path d="M0 0h24v24H0zm0 0h24v24H0zm0 0h24v24H0zm0 0h24v24H0z" fill="none"/><path d="M12 7c2.76 0 5 2.24 5 5 0 .65-.13 1.26-.36 1.83l2.92 2.92c1.51-1.26 2.7-2.89 3.43-4.75-1.73-4.39-6-7.5-11-7.5-1.4 0-2.74.25-3.98.7l2.16 2.16C10.74 7.13 11.35 7 12 7zM2 4.27l2.28 2.28.46.46C3.08 8.3 1.78 10.02 1 12c1.73 4.39 6 7.5 11 7.5 1.55 0 3.03-.3 4.38-.84l.42.42L19.73 22 21 20.73 3.27 3 2 4.27zM7.53 9.8l1.55 1.55c-.05.21-.08.43-.08.65 0 1.66 1.34 3 3 3 .22 0 .44-.03.65-.08l1.55 1.55c-.67.33-1.41.53-2.2.53-2.76 0-5-2.24-5-5 0-.79.2-1.53.53-2.2zm4.31-.78l3.15 3.15.02-.16c0-1.66-1.34-3-3-3l-.17.01z"/></svg>

<svg width="24" height="24" viewBox="0 0 24 24" fill="none" xmlns="http://www.w3.org/2000/svg">
<g clip-path="url(#clip0_147_5001)">
<path d="M12 7C14.76 7 17 9.24 17 12C17 12.65 16.87 13.26 16.64 13.83L19.56 16.75C21.07 15.49 22.26 13.86 22.99 12C21.26 7.61 16.99 4.5 11.99 4.5C10.59 4.5 9.25 4.75 8.01 5.2L10.17 7.36C10.74 7.13 11.35 7 12 7ZM2 4.27L4.28 6.55L4.74 7.01C3.08 8.3 1.78 10.02 1 12C2.73 16.39 7 19.5 12 19.5C13.55 19.5 15.03 19.2 16.38 18.66L16.8 19.08L19.73 22L21 20.73L3.27 3L2 4.27ZM7.53 9.8L9.08 11.35C9.03 11.56 9 11.78 9 12C9 13.66 10.34 15 12 15C12.22 15 12.44 14.97 12.65 14.92L14.2 16.47C13.53 16.8 12.79 17 12 17C9.24 17 7 14.76 7 12C7 11.21 7.2 10.47 7.53 9.8ZM11.84 9.02L14.99 12.17L15.01 12.01C15.01 10.35 13.67 9.01 12.01 9.01L11.84 9.02Z" fill="#323232"/>
</g>
<defs>
<clipPath id="clip0_147_5001">
<rect width="24" height="24" fill="white"/>
</clipPath>
</defs>
</svg>
